public/img/icons/tahti.svg

<?xml version="1.0" encoding="UTF-8"?>
<svg width="20px" height="20px" viewBox="0 0 20 20" version="1.1" xmlns="http://www.w3.org/2000/svg" xmlns:xlink="http://www.w3.org/1999/xlink">
    <!-- Generator: Sketch 61 (89581) - https://sketch.com -->
    <title>tahti</title>
    <desc>Created with Sketch.</desc>
    <g id="tahti" stroke="none" stroke-width="1" fill="none" fill-rule="evenodd">
        <g id="Ikonit/tähti" fill="#001A58" fill-rule="nonzero">
            <path d="M20,7.62105263 L12.81,6.96842105 L10,0 L7.19,6.97894737 L0,7.62105263 L5.46,12.6 L3.82,20 L10,16.0736842 L16.18,20 L14.55,12.6 L20,7.62105263 Z M10,14.1052632 L6.24,16.4947368 L7.24,11.9894737 L3.92,8.95789474 L8.3,8.55789474 L10,4.31578947 L11.71,8.56842105 L16.09,8.96842105 L12.77,12 L13.77,16.5052632 L10,14.1052632 Z" id="Shape"></path>
        </g>
    </g>
</svg>

<svg width="20" height="20" xmlns="http://www.w3.org/2000/svg">
    <path d="M20 7.621l-7.19-.653L10 0 7.19 6.979 0 7.62l5.46 4.98L3.82 20 10 16.074 16.18 20l-1.63-7.4L20 7.621zm-10 6.484l-3.76 2.39 1-4.506-3.32-3.031 4.38-.4L10 4.316l1.71 4.252 4.38.4L12.77 12l1 4.505-3.77-2.4z" fill="#001A58"/>
</svg>
